img/menu_icon5.svg

<svg width="16" height="14" viewBox="0 0 16 14" fill="none" xmlns="http://www.w3.org/2000/svg">
<path d="M15.5 11H5V10.5C5 10.25 4.75 10 4.5 10H3.5C3.21875 10 3 10.25 3 10.5V11H0.5C0.21875 11 0 11.25 0 11.5V12.5C0 12.7812 0.21875 13 0.5 13H3V13.5C3 13.7812 3.21875 14 3.5 14H4.5C4.75 14 5 13.7812 5 13.5V13H15.5C15.75 13 16 12.7812 16 12.5V11.5C16 11.25 15.75 11 15.5 11ZM15.5 6H13V5.5C13 5.25 12.75 5 12.5 5H11.5C11.2188 5 11 5.25 11 5.5V6H0.5C0.21875 6 0 6.25 0 6.5V7.5C0 7.78125 0.21875 8 0.5 8H11V8.5C11 8.78125 11.2188 9 11.5 9H12.5C12.75 9 13 8.78125 13 8.5V8H15.5C15.75 8 16 7.78125 16 7.5V6.5C16 6.25 15.75 6 15.5 6ZM15.5 1H9V0.5C9 0.25 8.75 0 8.5 0H7.5C7.21875 0 7 0.25 7 0.5V1H0.5C0.21875 1 0 1.25 0 1.5V2.5C0 2.78125 0.21875 3 0.5 3H7V3.5C7 3.78125 7.21875 4 7.5 4H8.5C8.75 4 9 3.78125 9 3.5V3H15.5C15.75 3 16 2.78125 16 2.5V1.5C16 1.25 15.75 1 15.5 1Z" fill="white"/>
</svg>

<svg width="16" height="14" fill="none" xmlns="http://www.w3.org/2000/svg"><path d="M15.5 11H5v-.5c0-.25-.25-.5-.5-.5h-1c-.281 0-.5.25-.5.5v.5H.5c-.281 0-.5.25-.5.5v1c0 .281.219.5.5.5H3v.5c0 .281.219.5.5.5h1c.25 0 .5-.219.5-.5V13h10.5c.25 0 .5-.219.5-.5v-1c0-.25-.25-.5-.5-.5zm0-5H13v-.5c0-.25-.25-.5-.5-.5h-1c-.281 0-.5.25-.5.5V6H.5c-.281 0-.5.25-.5.5v1c0 .281.219.5.5.5H11v.5c0 .281.219.5.5.5h1c.25 0 .5-.219.5-.5V8h2.5c.25 0 .5-.219.5-.5v-1c0-.25-.25-.5-.5-.5zm0-5H9V.5c0-.25-.25-.5-.5-.5h-1c-.281 0-.5.25-.5.5V1H.5c-.281 0-.5.25-.5.5v1c0 .281.219.5.5.5H7v.5c0 .281.219.5.5.5h1c.25 0 .5-.219.5-.5V3h6.5c.25 0 .5-.219.5-.5v-1c0-.25-.25-.5-.5-.5z" fill="#fff"/></svg>
